SF_Symbols/dots.and.line.vertical.and.cursorarrow.rectangle.svg

<?xml version="1.0" encoding="UTF-8"?>
<svg xmlns="http://www.w3.org/2000/svg" xmlns:xlink="http://www.w3.org/1999/xlink" width="24" height="24" viewBox="0 0 24 24" version="1.1">
<g id="surface1">
<path style=" stroke:none;fill-rule:nonzero;fill:rgb(100%,100%,100%);fill-opacity:1;" d="M 3.890625 21.074219 L 9.964844 21.074219 L 9.964844 19.566406 L 3.910156 19.566406 C 3.441406 19.566406 3.082031 19.445312 2.832031 19.199219 C 2.582031 18.949219 2.457031 18.582031 2.457031 18.09375 L 2.457031 6.796875 C 2.457031 6.308594 2.582031 5.945312 2.832031 5.699219 C 3.085938 5.449219 3.445312 5.324219 3.910156 5.324219 L 9.964844 5.324219 L 9.964844 3.816406 L 3.890625 3.816406 C 2.910156 3.816406 2.171875 4.058594 1.679688 4.546875 C 1.191406 5.027344 0.945312 5.753906 0.945312 6.722656 L 0.945312 18.167969 C 0.945312 19.136719 1.191406 19.863281 1.679688 20.34375 C 2.171875 20.832031 2.910156 21.074219 3.890625 21.074219 Z M 14.035156 21.074219 L 20.109375 21.074219 C 21.089844 21.074219 21.824219 20.832031 22.3125 20.34375 C 22.804688 19.863281 23.054688 19.136719 23.054688 18.167969 L 23.054688 6.722656 C 23.054688 5.753906 22.808594 5.027344 22.320312 4.546875 C 21.835938 4.058594 21.097656 3.816406 20.109375 3.816406 L 14.035156 3.816406 L 14.035156 5.324219 L 20.089844 5.324219 C 20.554688 5.324219 20.910156 5.449219 21.160156 5.699219 C 21.414062 5.945312 21.542969 6.308594 21.542969 6.796875 L 21.542969 18.09375 C 21.542969 18.582031 21.417969 18.949219 21.167969 19.199219 C 20.917969 19.445312 20.558594 19.566406 20.089844 19.566406 L 14.035156 19.566406 Z M 12 23.898438 C 12.207031 23.898438 12.382812 23.820312 12.535156 23.671875 C 12.683594 23.523438 12.757812 23.34375 12.757812 23.136719 L 12.757812 1.726562 C 12.757812 1.519531 12.683594 1.34375 12.535156 1.199219 C 12.382812 1.050781 12.207031 0.976562 12 0.976562 C 11.792969 0.976562 11.617188 1.050781 11.464844 1.199219 C 11.320312 1.34375 11.25 1.519531 11.25 1.726562 L 11.25 23.136719 C 11.25 23.34375 11.320312 23.523438 11.464844 23.671875 C 11.617188 23.820312 11.792969 23.898438 12 23.898438 Z M 5.082031 13.59375 C 5.398438 13.59375 5.667969 13.480469 5.886719 13.257812 C 6.105469 13.023438 6.214844 12.75 6.214844 12.429688 C 6.214844 12.113281 6.105469 11.839844 5.886719 11.617188 C 5.667969 11.382812 5.398438 11.269531 5.082031 11.269531 C 4.761719 11.269531 4.488281 11.382812 4.257812 11.617188 C 4.03125 11.839844 3.917969 12.113281 3.917969 12.429688 C 3.917969 12.75 4.03125 13.023438 4.257812 13.257812 C 4.488281 13.480469 4.761719 13.59375 5.082031 13.59375 Z M 8.457031 13.59375 C 8.773438 13.59375 9.042969 13.480469 9.261719 13.257812 C 9.488281 13.023438 9.601562 12.75 9.601562 12.429688 C 9.601562 12.113281 9.488281 11.839844 9.261719 11.617188 C 9.042969 11.382812 8.773438 11.269531 8.457031 11.269531 C 8.144531 11.269531 7.871094 11.382812 7.640625 11.617188 C 7.414062 11.839844 7.304688 12.113281 7.304688 12.429688 C 7.304688 12.75 7.414062 13.023438 7.640625 13.257812 C 7.871094 13.480469 8.144531 13.59375 8.457031 13.59375 Z M 15.132812 14.34375 C 15.125 14.488281 15.179688 14.578125 15.300781 14.617188 C 15.425781 14.648438 15.53125 14.617188 15.617188 14.53125 L 16.734375 13.433594 L 17.972656 16.492188 C 17.992188 16.554688 18.035156 16.601562 18.101562 16.632812 C 18.179688 16.664062 18.246094 16.664062 18.308594 16.640625 L 19.023438 16.351562 C 19.085938 16.332031 19.125 16.289062 19.144531 16.21875 C 19.167969 16.148438 19.164062 16.082031 19.125 16.011719 L 17.8125 12.984375 L 19.398438 12.9375 C 19.527344 12.9375 19.617188 12.882812 19.667969 12.777344 C 19.71875 12.664062 19.695312 12.558594 19.59375 12.460938 L 15.648438 8.390625 C 15.554688 8.296875 15.453125 8.269531 15.347656 8.304688 C 15.242188 8.34375 15.1875 8.429688 15.1875 8.570312 Z M 15.132812 14.34375 "/>
</g>
</svg>

<svg xmlns="http://www.w3.org/2000/svg" width="24" height="24"><path style="stroke:none;fill-rule:nonzero;fill:#fff;fill-opacity:1" d="M3.89 21.074h6.075v-1.508H3.91c-.469 0-.828-.12-1.078-.367-.25-.25-.375-.617-.375-1.105V6.797c0-.488.125-.852.375-1.098.254-.25.613-.375 1.078-.375h6.055V3.816H3.89c-.98 0-1.72.243-2.211.73-.489.481-.735 1.208-.735 2.177v11.445c0 .969.246 1.695.735 2.176.492.488 1.23.73 2.21.73Zm10.145 0h6.074c.98 0 1.715-.242 2.203-.73.493-.48.743-1.207.743-2.176V6.723c0-.97-.246-1.696-.735-2.176-.484-.488-1.222-.73-2.21-.73h-6.075v1.507h6.055c.465 0 .82.125 1.07.375.254.246.383.61.383 1.098v11.297c0 .488-.125.855-.375 1.105-.25.246-.61.367-1.078.367h-6.055ZM12 23.898a.744.744 0 0 0 .535-.226.726.726 0 0 0 .223-.535V1.727a.708.708 0 0 0-.223-.528A.747.747 0 0 0 12 .977c-.2 0-.395.078-.535.222a.716.716 0 0 0-.215.528v21.41c0 .207.07.386.215.535.14.144.332.226.535.226ZM5.082 13.594c.316 0 .586-.114.805-.336a1.17 1.17 0 0 0 .328-.828c0-.317-.11-.59-.328-.813a1.056 1.056 0 0 0-.805-.347c-.32 0-.594.113-.824.347a1.1 1.1 0 0 0-.34.813c0 .32.113.593.34.828.23.222.504.336.824.336Zm3.375 0c.316 0 .586-.114.805-.336.226-.235.34-.508.34-.828a1.1 1.1 0 0 0-.34-.813 1.056 1.056 0 0 0-.805-.347c-.312 0-.586.113-.816.347-.22.211-.344.508-.336.813-.004.308.113.605.332.824.215.219.511.344.82.34Zm6.676.75c-.008.144.047.234.168.273.125.031.23 0 .316-.086l1.117-1.097 1.239 3.058c.02.063.062.11.129.14.066.028.14.032.207.009l.714-.29c.063-.019.102-.062.122-.132a.242.242 0 0 0-.02-.207l-1.313-3.028 1.586-.046c.13 0 .22-.055.27-.16.05-.114.027-.22-.074-.317l-3.946-4.07c-.093-.094-.195-.121-.3-.086-.106.039-.16.125-.16.265Zm0 0"/></svg>
